Numix-Light-GalliumOS/16/status/yd-busy5.svg

<?xml version="1.0" encoding="UTF-8" standalone="no"?>
<!-- Created with Inkscape (http://www.inkscape.org/) -->

<svg
   xmlns:dc="http://purl.org/dc/elements/1.1/"
   xmlns:cc="http://creativecommons.org/ns#"
   xmlns:rdf="http://www.w3.org/1999/02/22-rdf-syntax-ns#"
   xmlns:svg="http://www.w3.org/2000/svg"
   xmlns="http://www.w3.org/2000/svg"
   xmlns:sodipodi="http://sodipodi.sourceforge.net/DTD/sodipodi-0.dtd"
   xmlns:inkscape="http://www.inkscape.org/namespaces/inkscape"
   id="svg2"
   version="1.1"
   inkscape:version="0.91 r"
   width="16"
   height="16"
   viewBox="0 0 16 16"
   sodipodi:docname="yd-busy5.svg">
  <metadata
     id="metadata8">
    <rdf:RDF>
      <cc:Work
         rdf:about="">
        <dc:format>image/svg+xml</dc:format>
        <dc:type
           rdf:resource="http://purl.org/dc/dcmitype/StillImage" />
        <dc:title />
      </cc:Work>
    </rdf:RDF>
  </metadata>
  <defs
     id="defs6">
    <clipPath
       id="clipPath-408241621">
      <g
         id="g3616"
         transform="translate(0,-1004.3622)">
        <path
           id="path3618"
           transform="matrix(15.333333,0,0,11.5,414.99999,878.8622)"
           d="m -24,13 c 0,1.105 -0.672,2 -1.5,2 -0.828,0 -1.5,-0.895 -1.5,-2 0,-1.105 0.672,-2 1.5,-2 0.828,0 1.5,0.895 1.5,2 z"
           inkscape:connector-curvature="0"
           style="fill:#1890d0" />
      </g>
    </clipPath>
    <clipPath
       id="clipPath-408241621-2">
      <g
         id="g3616-2"
         transform="translate(0,-1004.3622)">
        <path
           id="path3618-9"
           transform="matrix(15.333333,0,0,11.5,414.99999,878.8622)"
           d="m -24,13 c 0,1.105 -0.672,2 -1.5,2 -0.828,0 -1.5,-0.895 -1.5,-2 0,-1.105 0.672,-2 1.5,-2 0.828,0 1.5,0.895 1.5,2 z"
           inkscape:connector-curvature="0"
           style="fill:#1890d0" />
      </g>
    </clipPath>
    <clipPath
       id="clipPath-408241621-2-6">
      <g
         id="g3616-2-4"
         transform="translate(0,-1004.3622)">
        <path
           id="path3618-9-4"
           transform="matrix(15.333333,0,0,11.5,414.99999,878.8622)"
           d="m -24,13 c 0,1.105 -0.672,2 -1.5,2 -0.828,0 -1.5,-0.895 -1.5,-2 0,-1.105 0.672,-2 1.5,-2 0.828,0 1.5,0.895 1.5,2 z"
           inkscape:connector-curvature="0"
           style="fill:#1890d0" />
      </g>
    </clipPath>
  </defs>
  <sodipodi:namedview
     pagecolor="#ffffff"
     bordercolor="#666666"
     borderopacity="1"
     objecttolerance="10"
     gridtolerance="10"
     guidetolerance="10"
     inkscape:pageopacity="0"
     inkscape:pageshadow="2"
     inkscape:window-width="1366"
     inkscape:window-height="747"
     id="namedview4"
     showgrid="true"
     showguides="false"
     inkscape:zoom="22.627416"
     inkscape:cx="11.203547"
     inkscape:cy="12.354745"
     inkscape:window-x="0"
     inkscape:window-y="21"
     inkscape:window-maximized="1"
     inkscape:current-layer="svg2">
    <inkscape:grid
       type="xygrid"
       id="grid4142" />
  </sodipodi:namedview>
  <path
     style="opacity:1;fill:#353535;fill-opacity:0.94117647;fill-rule:nonzero;stroke:none;stroke-width:1;stroke-linecap:square;stroke-linejoin:round;stroke-miterlimit:4;stroke-dasharray:none;stroke-dashoffset:0;stroke-opacity:1"
     d="m 8.284512,3.8962185 0.00624,0.10469 -0.5625132,0.064064 C 6.2144622,4.2361766 4.9059757,5.3146796 4.4062951,6.8525384 4.3888006,6.9063809 4.3807561,6.9609698 4.3656691,7.0150422 4.4706304,6.9737948 4.5787001,6.9335956 4.6859893,6.8931643 5.1378295,5.5603098 6.2675282,4.5916198 7.6360591,4.4149808 l 0.637515,-0.082815 0.028129,0.4687611 0.6672038,-0.6203272 C 8.7894311,4.0852839 8.6058532,3.995375 8.4423277,3.938407 8.4103214,3.9272566 8.3305323,3.9097378 8.284512,3.8962185 Z M 7.1563601,5.7822005 C 6.8750558,5.9047748 6.6254937,6.0884095 6.4094675,6.3119006 6.6598084,6.2366715 6.9089367,6.1599455 7.1672979,6.0900204 c 0.00211,-5.706e-4 0.00414,-9.921e-4 0.00625,-0.00156 L 7.1563601,5.7822005 Z m 5.5016929,0.079689 c -0.0099,1.972e-4 -0.02131,0.00134 -0.03125,0.00156 0.483783,1.1425718 0.554409,2.4600204 0.148441,3.7094628 -0.04564,0.1404617 -0.1059,0.2721496 -0.162506,0.4062624 2.216035,-1.0419974 3.590963,-2.2151675 3.36258,-3.0766351 C 15.791451,6.2050442 14.577607,5.8237087 12.658053,5.8618899 Z m -1.371908,0.09219 c -0.10673,0.011068 -0.219543,0.029149 -0.328132,0.042188 0.58679,0.9061357 0.764284,2.0425419 0.414072,3.1203866 -0.258474,0.795498 -0.770011,1.4555579 -1.4234708,1.9062949 0.2574918,-0.0837 0.5021788,-0.170878 0.7484548,-0.259381 0.414632,-0.435849 0.743479,-0.9653362 0.937522,-1.5625367 0.36829,-1.1334812 0.20523,-2.295694 -0.348446,-3.246952 z M 9.6267312,6.1978354 C 9.1747342,6.2793391 8.7177486,6.3741996 8.2532609,6.4837797 L 7.2516748,7.4150518 7.2126115,6.7462859 C 6.7545818,6.8732262 6.3082234,7.0080293 5.8782049,7.150983 5.8568209,7.204983 5.8277309,7.2525463 5.8094539,7.3087988 5.4945183,8.2780714 5.7944309,9.3404917 6.5266583,9.9541742 L 6.9688562,10.324496 8.7642107,8.6072671 8.8595257,10.265119 C 9.4891372,9.9927759 10.002381,9.4512815 10.231432,8.7463328 10.534863,7.8124708 10.28649,6.8323302 9.6267312,6.1978354 Z M 4.5203603,7.6478701 c -0.096929,0.038657 -0.1960213,0.07637 -0.2906318,0.1156275 -0.08665,1.067538 0.2569214,2.11751 0.9281469,2.9094444 l 0.2031298,-0.25157 C 4.7157168,9.6542463 4.4067853,8.6519362 4.5203603,7.6478701 Z M 3.0171998,8.3103849 c -2.0055587,0.9978516 -3.20824781,2.0931611 -2.99225815,2.9078811 0.2403673,0.911717 2.20727085,1.216442 4.86261485,0.920335 l -0.095315,-0.07969 C 3.6755415,11.125828 3.0631861,9.7472405 3.0171998,8.3103849 Z m 4.6985484,2.9610071 -0.5140746,0.4922 c 0.1751665,-0.03756 0.3564388,-0.08622 0.5343878,-0.128128 L 7.715749,11.271392 Z"
     id="path4138"
     inkscape:connector-curvature="0" />
  <g
     id="g4263"
     transform="matrix(0.42307692,0,0,0.42307692,6.3606939,1.5192308)">
    <g
       style="fill:#353535;fill-opacity:1"
       id="g3628"
       transform="matrix(0.34782609,0,0,0.34782609,2.6435901,2.6456559)" />
    <g
       transform="matrix(0.49988464,0,0,0.49988464,-37.411065,7.9950011)"
       clip-path="url(#clipPath-408241621)"
       id="g3650">
      <!-- color: #004794 -->
      <g
         id="g3652" />
    </g>
  </g>
  <g
     id="g4174"
     transform="matrix(0.24721944,-0.76086319,0.76086319,0.24721944,-3.0789805,13.657807)">
    <g
       style="fill:#353535;fill-opacity:1"
       id="g3628-8"
       transform="matrix(0.34782609,0,0,0.34782609,2.6435901,2.6456559)">
      <path
         inkscape:connector-curvature="0"
         id="path3630"
         transform="matrix(2.875,0,0,2.875,97.067647,-33.481261)"
         d="m -25.40625,14.5 c 2.303968,0 4.367461,1.302964 5.28125,3.3125 l 1.21875,-0.46875 -1,3.46875 -3.3125,-1.84375 1.28125,-0.5 c -0.620857,-1.310198 -1.9541,-2.125 -3.46875,-2.125 -1.572637,0 -2.996131,0.939574 -3.5625,2.34375 L -30.75,18 c 0.844805,-2.103515 2.984794,-3.5 5.34375,-3.5 z m -5.5,4.71875 3.3125,1.78125 -1.28125,0.5 c 0.613358,1.304699 1.964097,2.15625 3.46875,2.15625 1.575636,0 2.978635,-0.910324 3.5625,-2.3125 l 1.78125,0.6875 c -0.876798,2.103015 -2.979296,3.46875 -5.34375,3.46875 -2.292471,0 -4.386956,-1.339213 -5.28125,-3.34375 l -1.21875,0.4375 z"
         style="fill:#353535;fill-opacity:1"
         sodipodi:nodetypes="scccccsccscccsccsccc" />
    </g>
    <g
       transform="matrix(0.49988464,0,0,0.49988464,-37.411065,7.9950011)"
       clip-path="url(#clipPath-408241621-2)"
       id="g3650-3">
      <!-- color: #004794 -->
      <g
         id="g3652-1" />
    </g>
  </g>
  <g
     id="g4174-4"
     style="stroke:#000000;stroke-width:1.5;stroke-miterlimit:4;stroke-dasharray:none;stroke-opacity:1"
     transform="matrix(0.309017,-0.95105651,0.95105651,0.309017,5.3423705,6.368353)">
    <g
       style="fill:#353535;fill-opacity:1;stroke:#000000;stroke-width:4.3125;stroke-miterlimit:4;stroke-dasharray:none;stroke-opacity:1"
       id="g3628-8-4"
       transform="matrix(0.34782609,0,0,0.34782609,2.6435901,2.6456559)" />
    <g
       transform="matrix(0.49988464,0,0,0.49988464,-37.411065,7.9950011)"
       clip-path="url(#clipPath-408241621-2-6)"
       id="g3650-3-9"
       style="stroke:#000000;stroke-width:3.00069237;stroke-miterlimit:4;stroke-dasharray:none;stroke-opacity:1">
      <!-- color: #004794 -->
      <g
         id="g3652-1-7"
         style="stroke:#000000;stroke-width:3.00069237;stroke-miterlimit:4;stroke-dasharray:none;stroke-opacity:1" />
    </g>
  </g>
</svg>

<svg xmlns="http://www.w3.org/2000/svg" viewBox="0 0 16 16">
 <path d="m 8.285 3.896 0.006 0.105 -0.563 0.064 c -1.514 0.171 -2.822 1.25 -3.322 2.788 -0.017 0.054 -0.026 0.108 -0.041 0.163 0.105 -0.041 0.213 -0.081 0.32 -0.122 0.452 -1.333 1.582 -2.302 2.95 -2.478 l 0.638 -0.083 0.028 0.469 0.667 -0.62 c -0.179 -0.095 -0.363 -0.185 -0.527 -0.242 -0.032 -0.011 -0.112 -0.029 -0.158 -0.042 m -1.128 1.886 c -0.281 0.123 -0.531 0.306 -0.747 0.53 0.25 -0.075 0.499 -0.152 0.758 -0.222 c 0.002 -0.001 0.004 -0.001 0.006 -0.002 l -0.017 -0.306 m 5.502 0.08 c -0.01 0 -0.021 0.001 -0.031 0.002 0.484 1.143 0.554 2.46 0.148 3.709 -0.046 0.14 -0.106 0.272 -0.163 0.406 2.216 -1.042 3.591 -2.215 3.363 -3.077 c -0.184 -0.697 -1.398 -1.079 -3.317 -1.041 m -1.372 0.092 c -0.107 0.011 -0.22 0.029 -0.328 0.042 0.587 0.906 0.764 2.043 0.414 3.12 -0.258 0.795 -0.77 1.456 -1.423 1.906 0.257 -0.084 0.502 -0.171 0.748 -0.259 0.415 -0.436 0.743 -0.965 0.938 -1.563 0.368 -1.133 0.205 -2.296 -0.348 -3.247 z m -1.659 0.244 c -0.452 0.082 -0.909 0.176 -1.373 0.286 l -1 0.931 -0.039 -0.669 c -0.458 0.127 -0.904 0.262 -1.334 0.405 -0.021 0.054 -0.05 0.102 -0.069 0.158 -0.315 0.969 -0.015 2.032 0.717 2.645 l 0.442 0.37 1.795 -1.717 0.095 1.658 c 0.63 -0.272 1.143 -0.814 1.372 -1.519 0.303 -0.934 0.055 -1.914 -0.605 -2.548 m -5.106 1.45 c -0.097 0.039 -0.196 0.076 -0.291 0.116 -0.087 1.068 0.257 2.118 0.928 2.909 l 0.203 -0.252 c -0.645 -0.767 -0.954 -1.769 -0.841 -2.774 m -1.503 0.663 c -2.01 0.998 -3.208 2.093 -2.992 2.908 0.24 0.912 2.207 1.216 4.863 0.92 l -0.095 -0.08 c -1.117 -0.933 -1.729 -2.312 -1.775 -3.749 m 4.699 2.961 -0.514 0.492 c 0.175 -0.038 0.356 -0.086 0.534 -0.128 l -0.02 -0.364" style="fill:#353535;opacity:1;fill-opacity:0.941;stroke:none;fill-rule:nonzero"/>
 <g transform="matrix(0.42307692,0,0,0.42307692,6.3606939,1.5192308)">
  <g transform="matrix(0.49988464,0,0,0.49988464,-37.411065,7.9950011)">
   <!-- color: #004794 -->
  </g>
 </g>
 <g transform="matrix(0.24721944,-0.76086319,0.76086319,0.24721944,-3.0789805,13.657807)">
  <g transform="matrix(0.34782609,0,0,0.34782609,2.6435901,2.6456559)" style="fill:#353535;fill-opacity:1">
   <path transform="matrix(2.875,0,0,2.875,97.067647,-33.481261)" d="m -25.406 14.5 c 2.304 0 4.367 1.303 5.281 3.313 l 1.219 -0.469 -1 3.469 -3.313 -1.844 1.281 -0.5 c -0.621 -1.31 -1.954 -2.125 -3.469 -2.125 -1.573 0 -2.996 0.94 -3.563 2.344 l -1.781 -0.688 c 0.845 -2.104 2.985 -3.5 5.344 -3.5 z m -5.5 4.719 3.313 1.781 -1.281 0.5 c 0.613 1.305 1.964 2.156 3.469 2.156 1.576 0 2.979 -0.91 3.563 -2.313 l 1.781 0.688 c -0.877 2.103 -2.979 3.469 -5.344 3.469 -2.292 0 -4.387 -1.339 -5.281 -3.344 l -1.219 0.438 z"/>
  </g>
  <g transform="matrix(0.49988464,0,0,0.49988464,-37.411065,7.9950011)">
   <!-- color: #004794 -->
  </g>
 </g>
 <g transform="matrix(0.309017,-0.95105651,0.95105651,0.309017,5.3423705,6.368353)" style="stroke-dasharray:none;stroke-opacity:1;stroke-miterlimit:4;stroke:#000;stroke-width:1.5">
  <g transform="matrix(0.49988464,0,0,0.49988464,-37.411065,7.9950011)" style="stroke-width:3">
   <!-- color: #004794 -->
  </g>
 </g>
</svg>
